icons/sound-module-fill.svg

<svg width="24" height="24" fill="none" xmlns="http://www.w3.org/2000/svg"><g clip-path="url(#a)"><path d="M21 18v3h-2v-3h-2v-3h6v3h-2ZM5 18v3H3v-3H1v-3h6v3H5Zm6-12V3h2v3h2v3H9V6h2Zm0 5h2v10h-2V11Zm-8 2V3h2v10H3Zm16 0V3h2v10h-2Z" /></g><defs><clipPath id="a"><path fill="#fff" d="M0 0h24v24H0z"/></clipPath></defs></svg>

<svg xmlns="http://www.w3.org/2000/svg" width="24" height="24" fill="none"><g clip-path="url(#a)"><g><path fill="#121212" d="M21 18V21H19V18H17V15H23V18H21ZM5 18V21H3V18H1V15H7V18H5ZM11 6V3H13V6H15V9H9V6H11ZM11 11H13V21H11V11ZM3 13V3H5V13H3ZM19 13V3H21V13H19Z"/></g></g><defs><clipPath id="a"><rect width="24" height="24" fill="white"/></clipPath></defs></svg>
